svg/l/OM.svg

<svg width="32" height="24" viewBox="0 0 32 24" fill="none" xmlns="http://www.w3.org/2000/svg">
<g clip-path="url(#clip0_270_67533)">
<rect width="32" height="24" fill="white"/>
<path fill-rule="evenodd" clip-rule="evenodd" d="M0 0V24H32V0H0Z" fill="#F50101"/>
<mask id="mask0_270_67533" style="mask-type:luminance" maskUnits="userSpaceOnUse" x="0" y="0" width="32" height="24">
<path fill-rule="evenodd" clip-rule="evenodd" d="M0 0V24H32V0H0Z" fill="white"/>
</mask>
<g mask="url(#mask0_270_67533)">
<path fill-rule="evenodd" clip-rule="evenodd" d="M0 0V8H32V0H0Z" fill="#F7FCFF"/>
<path fill-rule="evenodd" clip-rule="evenodd" d="M0 16V24H32V16H0Z" fill="#5EAA22"/>
<rect width="12" height="24" fill="#F50101"/>
<path fill-rule="evenodd" clip-rule="evenodd" d="M10.7704 2.03287C10.7799 1.94165 10.6632 1.90655 10.6167 1.98558C10.2538 2.60203 9.34424 4.06847 7.84698 5.98616V5.06847C7.70417 4.91325 7.24885 4.49567 7.24885 4.49567V3.57935L8.07254 2.83396L6.94127 2.00001L5.74893 2.83396L6.65018 3.57935V4.49567C6.65018 4.93507 6.10378 5.06847 6.10378 5.06847L6.00374 5.87676C4.6108 4.06797 3.74234 2.65763 3.37458 2.02726C3.32712 1.94591 3.20773 1.98423 3.22176 2.07737C3.33277 2.81452 3.66475 4.45013 4.58185 6.19646H4.33588V6.16394C4.33588 6.11592 4.29695 6.07699 4.24893 6.07699H2.14023C2.09221 6.07699 2.05327 6.11592 2.05327 6.16394V7.49003C2.05327 7.53805 2.09221 7.57699 2.14023 7.57699H4.24893C4.29695 7.57699 4.33588 7.53805 4.33588 7.49003V6.79383H4.60145C4.69153 7.00153 4.89838 7.14791 5.14029 7.15216C5.30928 7.41288 5.49254 7.67291 5.69127 7.92967C5.23413 7.88446 2.21276 7.62722 2.21276 8.72641C2.21276 9.38251 2.94765 9.7298 3.86928 9.90931C2.94129 10.7497 2.06538 11.5403 1.66237 11.9039C1.59698 11.9629 1.6481 12.0651 1.73358 12.0439C2.45326 11.8656 4.33971 11.3153 6.13555 10.0902L6.19148 10.0903C6.69724 10.0903 7.049 9.87085 7.29349 9.57388C9.12002 11.0648 11.1864 11.7534 12.0834 12.0001C12.1765 12.0257 12.2268 11.9052 12.1475 11.8502C11.4189 11.3445 9.77604 10.1274 8.09616 8.35957L8.14023 8.30797C8.48296 7.90351 8.78161 7.48748 9.04181 7.07033C9.15071 7.00666 9.23741 6.90981 9.28771 6.79383H9.55327L9.55327 7.49003C9.55327 7.53805 9.59221 7.57699 9.64023 7.57699H11.7489C11.797 7.57699 11.8359 7.53805 11.8359 7.49003V6.16394C11.8359 6.11592 11.797 6.07699 11.7489 6.07699H9.64023C9.61796 6.07699 9.59765 6.08536 9.58227 6.09912C10.4446 4.35362 10.6978 2.73402 10.7704 2.03287ZM9.55327 6.19646L9.55327 6.16394L9.55356 6.15682L9.53361 6.19646H9.55327ZM5.64023 6.56086C5.64023 6.82809 5.42124 7.04473 5.1511 7.04473C4.88096 7.04473 4.66197 6.82809 4.66197 6.56086C4.66197 6.29362 4.88096 6.07699 5.1511 6.07699C5.42124 6.07699 5.64023 6.29362 5.64023 6.56086ZM8.24893 6.56086C8.24893 6.82809 8.46792 7.04473 8.73806 7.04473C9.0082 7.04473 9.22719 6.82809 9.22719 6.56086C9.22719 6.29362 9.0082 6.07699 8.73806 6.07699C8.46792 6.07699 8.24893 6.29362 8.24893 6.56086Z" fill="#F7FCFF"/>
</g>
</g>
<defs>
<clipPath id="clip0_270_67533">
<rect width="32" height="24" fill="white"/>
</clipPath>
</defs>
</svg>

<svg width="32" height="24" fill="none" xmlns="http://www.w3.org/2000/svg">
  <mask id="a" maskUnits="userSpaceOnUse" x="0" y="0" width="32" height="24">
    <path fill="#fff" d="M0 0h32v24H0z"/>
  </mask>
  <g mask="url(#a)">
    <path fill-rule="evenodd" clip-rule="evenodd" d="M0 0v24h32V0H0z" fill="#F50101"/>
    <mask id="b" maskUnits="userSpaceOnUse" x="0" y="0" width="32" height="24">
      <path fill-rule="evenodd" clip-rule="evenodd" d="M0 0v24h32V0H0z" fill="#fff"/>
    </mask>
    <g mask="url(#b)">
      <path fill-rule="evenodd" clip-rule="evenodd" d="M0 0v8h32V0H0z" fill="#F7FCFF"/>
      <path fill-rule="evenodd" clip-rule="evenodd" d="M0 16v8h32v-8H0z" fill="#5EAA22"/>
      <path fill="#F50101" d="M0 0h12v24H0z"/>
      <path fill-rule="evenodd" clip-rule="evenodd" d="M10.77 2.033c.01-.091-.107-.126-.153-.047-.363.616-1.273 2.082-2.77 4v-.918c-.143-.155-.598-.572-.598-.572v-.917l.824-.745L6.94 2l-1.192.834.901.745v.917c0 .44-.546.572-.546.572l-.1.809c-1.393-1.809-2.262-3.22-2.63-3.85-.047-.081-.166-.043-.152.05.11.738.443 2.373 1.36 4.12h-.246v-.033a.087.087 0 00-.087-.087H2.14a.087.087 0 00-.087.087V7.49c0 .048.04.087.087.087h2.11a.087.087 0 00.087-.087v-.696H4.6c.09.208.297.354.54.358.168.26.352.52.55.778-.457-.046-3.478-.303-3.478.796 0 .657.735 1.004 1.656 1.183l-2.207 1.995c-.065.059-.014.161.072.14.72-.178 2.606-.729 4.402-1.954h.055c.506 0 .858-.22 1.102-.516 1.827 1.49 3.893 2.18 4.79 2.426.094.026.144-.095.065-.15a27.17 27.17 0 01-4.052-3.49l.044-.052c.343-.404.642-.82.902-1.238a.596.596 0 00.246-.276h.265v.696c0 .048.04.087.087.087h2.109a.087.087 0 00.087-.087V6.164a.087.087 0 00-.087-.087H9.64a.087.087 0 00-.058.022 12.353 12.353 0 001.188-4.066zM9.553 6.196v-.039l-.02.04h.02zm-3.913.365a.487.487 0 01-.489.484.487.487 0 01-.489-.484c0-.267.219-.484.49-.484.27 0 .488.217.488.484zm2.609 0c0 .267.219.484.49.484.27 0 .488-.217.488-.484a.487.487 0 00-.489-.484c-.27 0-.49.217-.49.484z" fill="#F7FCFF"/>
    </g>
  </g>
</svg>
